src/lib/packages/icons/src/assets/line/box.svg

<svg width="24" height="24" viewBox="0 0 24 24" fill="none" xmlns="http://www.w3.org/2000/svg">
<path d="M21.287 6.88198C21.286 6.87998 21.287 6.878 21.286 6.876C21.284 6.871 21.279 6.868 21.277 6.863C20.89 6.16 20.287 5.57999 19.525 5.24099L13.525 2.574C12.556 2.144 11.447 2.144 10.478 2.574L4.47803 5.24099C3.71503 5.57999 3.11295 6.16 2.72595 6.863C2.72395 6.868 2.71904 6.871 2.71704 6.876C2.71604 6.878 2.71694 6.87998 2.71594 6.88198C2.42294 7.42098 2.25305 8.02898 2.25305 8.66698V15.334C2.25305 16.814 3.12698 18.159 4.47998 18.761L10.48 21.428C10.962 21.642 11.479 21.748 11.996 21.75C11.999 21.75 12.001 21.751 12.004 21.751C12.007 21.751 12.009 21.75 12.012 21.75C12.529 21.749 13.046 21.642 13.528 21.428L19.528 18.761C20.881 18.16 21.755 16.815 21.755 15.334V8.66698C21.75 8.02898 21.58 7.41998 21.287 6.88198ZM11.0861 3.94399C11.3761 3.81499 11.689 3.74999 12 3.74999C12.311 3.74999 12.6239 3.81398 12.9139 3.94298L18.9139 6.60998C19.0839 6.68598 19.233 6.791 19.376 6.902L16.6429 8.11699L9.38403 4.7L11.0861 3.94399ZM7.573 5.505L14.832 8.92199L12.92 9.77199C12.334 10.027 11.663 10.027 11.085 9.77398L4.62402 6.902C4.76702 6.791 4.91606 6.68498 5.08606 6.60998L7.573 5.505ZM5.08606 17.389C4.27406 17.028 3.75 16.221 3.75 15.333V8.66598C3.75 8.50098 3.78595 8.343 3.81995 8.187L10.48 11.147C10.729 11.255 10.987 11.334 11.25 11.386V20.108C11.196 20.089 11.1391 20.078 11.0861 20.055L5.08606 17.389ZM20.25 15.333C20.25 16.221 19.7259 17.028 18.9139 17.389L12.9139 20.056C12.8609 20.08 12.804 20.09 12.75 20.109V11.386C13.014 11.333 13.274 11.254 13.524 11.145L15.879 10.098V11.89C15.879 12.304 16.215 12.64 16.629 12.64C17.043 12.64 17.379 12.304 17.379 11.89V9.432L20.179 8.18798C20.214 8.34498 20.249 8.50198 20.249 8.66698V15.333H20.25Z" fill="currentColor"/>
</svg>

<svg xmlns="http://www.w3.org/2000/svg" width="24" height="24" fill="none"><path fill="currentColor" d="m21.287 6.882-.001-.006c-.002-.005-.007-.008-.009-.013a3.739 3.739 0 0 0-1.752-1.622l-6-2.667a3.76 3.76 0 0 0-3.047 0l-6 2.667a3.734 3.734 0 0 0-1.752 1.622c-.002.005-.007.008-.009.013l-.001.006a3.732 3.732 0 0 0-.463 1.785v6.667c0 1.48.874 2.825 2.227 3.427l6 2.667c.482.214.999.32 1.516.322l.008.001.008-.001a3.754 3.754 0 0 0 1.516-.322l6-2.667a3.752 3.752 0 0 0 2.227-3.427V8.667a3.791 3.791 0 0 0-.468-1.785Zm-10.2-2.938a2.253 2.253 0 0 1 1.827-.001l6 2.667c.17.076.319.181.462.292l-2.733 1.215L9.384 4.7l1.702-.756ZM7.572 5.505l7.259 3.417-1.912.85a2.305 2.305 0 0 1-1.835.002l-6.46-2.872c.143-.111.292-.217.462-.292l2.487-1.105ZM5.086 17.389a2.252 2.252 0 0 1-1.336-2.056V8.666c0-.165.036-.323.07-.479l6.66 2.96c.249.108.507.187.77.239v8.722c-.054-.019-.11-.03-.164-.053l-6-2.666Zm15.164-2.056c0 .888-.524 1.695-1.336 2.056l-6 2.667c-.053.024-.11.034-.164.053v-8.723c.264-.053.524-.132.774-.241l2.355-1.047v1.792a.75.75 0 0 0 1.5 0V9.432l2.8-1.244c.035.157.07.314.07.479v6.666h.001Z"/></svg>
